X:1
T:RVW2/1/135 Green Bushes
T:RVW2/1/135 Green Bushes
T:Transcribed by Simon Furey and Lewis Jones Mrs. Powell, Herefordshire, July 1909 [4 of 13]
C:Transcribed by Simon Furey and Lewis Jones
C:Mrs. Powell, Herefordshire, July 1909 [4 of 13]
L:1/8
Q:1/4=100
M:3/4
K:C
V:1 treble 
V:1
"^(Editorial suggestion)" A,2 | D2 D2 ED | C2 D2 (3EFG | A2 AGED |"^(a)" C2 D2 E2 | D2 D2 E2 | %6
 C2 D2 (3EFG | A2 c2 B2 | A4 G2 | A2 A2 d2 | A2 B2 c2 |"^(b)" EF GF ED |"^(c)" C2 D2 E2 | D3 FED | %14
 C2 D2 (3EFG | A2 AG E2 | D4 || A,2 | D2 D2 ED | C2 D2 (3EFG | A2 AGED |"^(a) var." C2 D2 EC | %22
 D2 D2 E2 | C2 D2 (3EFG | A2 c2 B2 | A4 G2 | A2 A2 d2 | A2 B2 c2 |"^(b) var." E2 G2 E2 | %29
"^(c) var." C2 D2 EC | D3 FED | C2 D2 (3EFG | A2 AG E2 | D4 |] %34

